lib/healthicons/icons/solid/symbols/i_exam_qualification.svg

<svg fill="none" height="48" viewBox="0 0 48 48" width="48" xmlns="http://www.w3.org/2000/svg"><path d="m28.7526 6.3415c-.2744-.31353-.7143-.42414-1.1043-.2776-.39.14653-.6483.51949-.6483.9361v7c0 1.1046.8954 2 2 2h6c.3924 0 .7485-.2295.9106-.5868.1622-.3573.1004-.7764-.158-1.0717zm-8.0026 16.6585h-1.5l.75-1.8zm6.8076-18 9.4424 10.3866v24.6134c0 1.6569-1.3431 3-3 3h-20c-1.6569 0-3-1.3431-3-3v-32c0-1.65685 1.3431-3 3-3zm-5.7114 10.2308c-.3106-.7453-1.0388-1.2308-1.8462-1.2308s-1.5356.4855-1.8462 1.2308l-5 12c-.4248 1.0196.0574 2.1905 1.077 2.6154 1.0196.4248 2.1905-.0574 2.6154-1.077l.7371-1.7692h4.8334l.7371 1.7692c.4249 1.0196 1.5958 1.5018 2.6154 1.077 1.0196-.4249 1.5018-1.5958 1.077-2.6154l-.103-.2471c.0841.0107.1698.0163.2568.0163h1v1c0 1.1046.8954 2 2 2s2-.8954 2-2v-1h1c1.1046 0 2-.8954 2-2s-.8954-2-2-2h-1v-1c0-1.1046-.8954-2-2-2s-2 .8954-2 2v1h-1c-.6479 0-1.2238.3081-1.5893.7857zm-6.8462 15.7692c-1.1046 0-2 .8954-2 2s.8954 2 2 2c-1.1046 0-2 .8954-2 2s.8954 2 2 2h12c1.1046 0 2-.8954 2-2 0-1.1038-.8942-1.9988-1.9977-2h5.9977c1.1046 0 2-.8954 2-2s-.8954-2-2-2z" fill="#333" stroke="#333" stroke-linejoin="round" stroke-width="2"/></svg>

<svg width="48" height="48" viewBox="0 0 48 48" fill="none" xmlns="http://www.w3.org/2000/svg">
<path d="M28.7526 6.3415C28.4782 6.02797 28.0383 5.91736 27.6483 6.0639C27.2583 6.21043 27 6.58339 27 7V14C27 15.1046 27.8954 16 29 16H35C35.3924 16 35.7485 15.7705 35.9106 15.4132C36.0728 15.0559 36.011 14.6368 35.7526 14.3415L28.7526 6.3415ZM20.75 23H19.25L20 21.2L20.75 23ZM27.5576 5L37 15.3866V40C37 41.6569 35.6569 43 34 43H14C12.3431 43 11 41.6569 11 40V8C11 6.34315 12.3431 5 14 5H27.5576ZM21.8462 15.2308C21.5356 14.4855 20.8074 14 20 14C19.1926 14 18.4644 14.4855 18.1538 15.2308L13.1538 27.2308C12.729 28.2504 13.2112 29.4213 14.2308 29.8462C15.2504 30.271 16.4213 29.7888 16.8462 28.7692L17.5833 27H22.4167L23.1538 28.7692C23.5787 29.7888 24.7496 30.271 25.7692 29.8462C26.7888 29.4213 27.271 28.2504 26.8462 27.2308L26.7432 26.9837C26.8273 26.9944 26.913 27 27 27H28V28C28 29.1046 28.8954 30 30 30C31.1046 30 32 29.1046 32 28V27H33C34.1046 27 35 26.1046 35 25C35 23.8954 34.1046 23 33 23H32V22C32 20.8954 31.1046 20 30 20C28.8954 20 28 20.8954 28 22V23H27C26.3521 23 25.7762 23.3081 25.4107 23.7857L21.8462 15.2308ZM15 31C13.8954 31 13 31.8954 13 33C13 34.1046 13.8954 35 15 35C13.8954 35 13 35.8954 13 37C13 38.1046 13.8954 39 15 39H27C28.1046 39 29 38.1046 29 37C29 35.8962 28.1058 35.0012 27.0023 35H33C34.1046 35 35 34.1046 35 33C35 31.8954 34.1046 31 33 31L15 31Z" fill="#333333" stroke="#333333" stroke-width="2" stroke-linejoin="round"/>
</svg>
